X: 23515
T: Libby Bird Song
R: mazurka
M: 3/4
K: Dmajor
|:B2 BA BA|FD D2 D2|A>c e>g f>e|f2 d2 FA|
B2 BA BA|FD D2 D2|A>c e>a a>c|d4:|
|:B>A G>B A>G|F>D D2 D2|A>c e>c e>c|A>d f>d fd|
B>A G>B A>G|F>D D2 D2|A>c c>a a>c|d4:|
|:f2 f>a f>e|d4 c>d|e2 e>d c>B|c2 A2 A>d|
f3 a f>e|d4 c>B|A>c c>a a>c|d4:|

